X: 70
T: Msza Święta - Offertorium
C: Józef Stefani
%%abc-version 2.0
%%abcx-abcm2ps-target-version 5.9.1 (29 Sep 2008)
%%abc-creator hum2abc beta
%%abcx-conversion-date 2021/10/04 07:38:39
%%abc-edited-by Andrzej Gręziak
%%abc-edited-by Marta Lawrence
%%abcx-initial-encoding-date 2021-08-12
%%humdrum-veritas 114712499
%%humdrum-veritas-data 1702464219
%%linebreak <none>
%%barnumbers 0
L: 1/8
M: 3/4
N: Derived from pl-kozmzk--mzk-m-26--005_stefani-jozef-msza-swieta-offertorium.krn
Q: "Andantino."
V: 1 clef=tenor
V: 2 clef=tenor
V: 3 clef=bass
V: 4 clef=treble
V: 5 clef=bass
K: Bb
[V:1] z2 [I:setbarnb 1]| 
[V:2] z2 | 
[V:3] z2 | 
[V:4] F2- | 
[V:5] F,2- | 
[V:1] z2z2B, C | 
[V:2] z2z2B, A, | 
[V:3] z2z2D, F, | 
[V:4] FF[GE][AFE] [BFD][cAF] | 
[V:5] F,F,_E,C, B,,F,, | 
[V:1] D2C2B, D | 
[V:2] B,2A,2B, B, | 
[V:3] B,2F,2D, B,, | 
[V:4] [d2B2F2][c2A2F2-]Bd & x4F2 | 
[V:5] B,,2[F,2F,,2]D,B,, | 
[V:1] D2C2B, C | 
[V:2] B,2A,2G, G, | 
[V:3] F,2F,2G, =E, | 
[V:4] [d2B2][c2A2]Bc & F4G2 | 
[V:5] [F,4F,,4]G,=E, | 
[V:1] A,/^G,/A,/C/ FC D =E | 
[V:2] F,>A,A,2B, G, | 
[V:3] F,2F,2B,, C, | 
[V:4] [A/F/] z/ z fc [dB][=eG] & x2[A2F2]x2 | 
[V:5] F,/ z/ zF,2B,,C, | 
[V:1] G2F zz2 | 
[V:2] B,2A, zz2 | 
[V:3] F,2F, zz2 | 
[V:4] [g2B2][fA] z [BFD][cAF] | 
[V:5] [F,2F,,2][F,F,,] z B,,F,, | 
[V:1] z6 | 
[V:2] z6 | 
[V:3] z6 | 
[V:4] [d2B2][c2A2]B[dB] & F6 | 
[V:5] B,,2[F,2F,,2]D,B,, | 
[V:1] z2z2A, C | 
[V:2] z2z2G, G, | 
[V:3] z2z2G, =E, | 
[V:4] [d2B2][c2A2]Bc & F4G2 | 
[V:5] [F,4F,,4]G,=E, | 
[V:1] A,/G/F/D/C2D =E | 
[V:2] F,>A,A,2B, G, | 
[V:3] F,2F,2B,, C, | 
[V:4] [AF] z[c2A2][dB][=eG] | 
[V:5] F, z[F,2F,,2]B,,C, | 
[V:1] !accent!G2F zz2 | 
[V:2] B,2A, zz2 | 
[V:3] F,2F, z A,3/ C/ | 
[V:4] [g2B2][fA] zz2 | 
[V:5] [F,2F,,2][F,F,,] zz2 | 
[V:1] z2z2E3/ D/ | 
[V:2] z2z2C3/ B,/ | 
[V:3] F,4F,2 | 
[V:4] z2z2[e3/c3/][d/B/] | 
[V:5] F,,F,F,,F,F,,F, | 
[V:1] {/D}C2>=B,2 C3/ D/ | 
[V:2] {/B,}A,2>^G,2 A,3/ B,/ | 
[V:3] F,4F,2 | 
[V:4] {/[dB]}[c2A2]>[=B2^G2] [c3/A3/][d/B/] | 
[V:5] F,,F,F,,F,F,,F, | 
[V:1] E2C zz2 | 
[V:2] C2A, zz2 | 
[V:3] F,2F, z B,3/ D/ | 
[V:4] [e2c2][cA] zz2 | 
[V:5] F,,F,F,, zz2 | 
[V:1] z2z2F3/ E/ | 
[V:2] z2z2D3/ C/ | 
[V:3] F,4F,2 | 
[V:4] z2z2[f3/d3/][e/c/] | 
[V:5] F,,F,F,,F,F,,F, | 
[V:1] {/E}D2>C2 D3/ E/ | 
[V:2] {/C}B,2>A,2 B,3/ C/ | 
[V:3] F,4F,2 | 
[V:4] {/[ec]}[d2B2]>[c2A2] [d3/B3/][e/c/] | 
[V:5] F,,F,F,,F,F,,F, | 
[V:1] F2D z C/B,/A,/ B,/ | 
[V:2] D2B, z C/B,/A,/ B,/ | 
[V:3] B,,2B,, z C/B,/A,/ B,/ | 
[V:4] [f2d2][dB] z c/B/A/B/ | 
[V:5] B,,B, B,, z C/B,/A,/B,/ | 
[V:1] G2F z C/B,/A,/ B,/ | 
[V:2] B,2B, z C/B,/A,/ B,/ | 
[V:3] E,2D, z C/B,/A,/ B,/ | 
[V:4] [g2e2B2G2][fBF] z c/B/A/B/ | 
[V:5] [B,2G,2E,2][B,F,D,] z C/B,/A,/B,/ | 
[V:1] E2D z D D | 
[V:2] B,2B, z A, B, | 
[V:3] G,2F, z ^F, G, | 
[V:4] [e2B2E2][dBF] zd2 & x4AB | 
[V:5] [G,2G,,2][F,F,,] z ^F,G, | 
[V:1] D2>C2 C B, | 
[V:2] G,2>G,2 G, G, | 
[V:3] E,2>E,2 =E, E, | 
[V:4] d2>c2 cB & G6 | 
[V:5] E,4=E,2 | 
[V:1] A,>C C z =B,/C/ D/E/ | 
[V:2] F,>A, A, z ^G,/A,/ B,/C/ | 
[V:3] F,2F, z F, F, | 
[V:4] [A2F2][cA] z [=B/^G/][c/A/][d/_B/][e/c/] | 
[V:5] F,2-[F,F,,]F,F,,F, | 
[V:1] F2D z C/=B,/ C/E/ | 
[V:2] D2B, z A,/^G,/ A,/C/ | 
[V:3] B,,2B,, z F, F, | 
[V:4] [f2d2][dB] z [c/A/][=B/^G/][c/A/][e/c/] | 
[V:5] B,,F,B,,F, F,,F, | 
[V:1] G2F z F3/ G/ | 
[V:2] E2D z D3/ D/ | 
[V:3] B,,2B,, z B,3/ =B,/ | 
[V:4] [g2e2][fd] z f3/g/ & x4[d2G2] | 
[V:5] B,,B, B,, z B,3/=B,/ | 
[V:1] F2E =E{/G}F3/ _E/ | 
[V:2] !accent!C2C CC3/ C/ | 
[V:3] C2C _B,A,3/ A,/ | 
[V:4] f2e =ef3/_e/ & [c4G4]F2 | 
[V:5] C2>_B,2A,2 | 
[V:1] D2D z F3/E/ | 
[V:2] B,2B, zG,2 | 
[V:3] B,2B, zE,2 | 
[V:4] [d2B2F2]>z2 f3/e/ & x4[c2G2] | 
[V:5] B,2>z2[C2G,2E,2] | 
[V:1] D3C/D< E F/ | 
[V:2] B,3A,/B,< C A,/ | 
[V:3] F,4F,3/ F,/ | 
[V:4] [d2B2F2]z2[A2F2E2C2] | 
[V:5] [D2B,2F,2]z2[F,2F,,2] | 
[V:1] D2D z B, C | 
[V:2] B,2B, z B, A, | 
[V:3] B,,2B,, z D, F, | 
[V:4] [B2F2D2]>z2 [BFD][cAF] | 
[V:5] [F,2B,,2]>z2 B,,F,, | 
[V:1] D2C2B, D | 
[V:2] B,2A,2B, B, | 
[V:3] B,,2F,2D, B,, | 
[V:4] [d2B2][c2A2]B[dB] & F6 | 
[V:5] B,,2[F,2F,,2]D,B,, | 
[V:1] D2C2B,3/ C/ | 
[V:2] B,2A,2G, G, | 
[V:3] F,2F,2G, =E, | 
[V:4] [d2B2][c2A2]Bc & F4G2 | 
[V:5] F,,2F,2G,=E, | 
[V:1] A,>CC2D =E | 
[V:2] F,>A,A,2B, G, | 
[V:3] F,2F,2B,, C, | 
[V:4] [A2F2][c2A2][dB][=eG] | 
[V:5] F,2-[F,2F,,2][B,B,,][CC,] | 
[V:1] G2F z B, C | 
[V:2] B,2A, z B, A, | 
[V:3] F,2F, z D, F, | 
[V:4] [g2B2][fA] z [BF_D][cAF] | 
[V:5] [F,2F,,2]>z2 B,,F,, | 
[V:1] _D2C2B, D | 
[V:2] B,2A,2B, B, | 
[V:3] B,,2F,2_D, B,, | 
[V:4] [_d2B2][c2A2]B[dB] & F6 | 
[V:5] B,,2[F,2F,,2]_D,B,, | 
[V:1] _D2C2B, C | 
[V:2] B,2A,2_G, G, | 
[V:3] F,2F,2_G, E, | 
[V:4] [_d2B2][c2A2]Bc & x4_G2 | 
[V:5] F,,2F,2_G,_E, | 
[V:1] A,/^G,/A,/C/F2D =E | 
[V:2] F,>A,A,2B, G, | 
[V:3] F,2F,2B,, C, | 
[V:4] [A/F/] z/ z[f2A2F2][dB][=eG] | 
[V:5] F,/ z/ z[F,2F,,2][B,B,,][CC,] | 
[V:1] G2F zz2 | 
[V:2] B,2A, zz2 | 
[V:3] F,2F, z A,3/ C/ | 
[V:4] [g2B2][fA] zz2 | 
[V:5] [F,2F,,2]>z2z2 | 
[V:1] z2z2E3/ D/ | 
[V:2] z2z2C3/ B,/ | 
[V:3] F,4F,2 | 
[V:4] z2z2[e3/c3/][d/B/] | 
[V:5] F,,F,F,,F,F,,F, | 
[V:1] C2>=B,2 C3/ D/ | 
[V:2] A,2>^G,2 A,3/ B,/ | 
[V:3] F,4F,2 | 
[V:4] [c2A2]>[=B2^G2] [c3/A3/][d/_B/] | 
[V:5] F,,F,F,,F,F,,F, | 
[V:1] E2C zz2 | 
[V:2] C2A, zz2 | 
[V:3] F,2F, z B,3/ D/ | 
[V:4] [e2c2][cA] zz2 | 
[V:5] F,,F,F,, zz2 | 
[V:1] z2z2F3/ E/ | 
[V:2] z2z2D3/ C/ | 
[V:3] F,4F,2 | 
[V:4] z2z2[f3/d3/][e/c/] | 
[V:5] F,,F,F,,F,F,,F, | 
[V:1] D2>C2 D3/ E/ | 
[V:2] B,2>A,2 B,3/ C/ | 
[V:3] F,4F,2 | 
[V:4] [d2B2]>[c2A2] [d3/B3/][e/c/] | 
[V:5] F,,F,F,,F,F,,F, | 
[V:1] F2D z C/B,/A,/ B,/ | 
[V:2] D2B, z C/B,/A,/ B,/ | 
[V:3] B,,2B,, z C/B,/A,/ B,/ | 
[V:4] [f2d2][dB] z c/B/A/B/ | 
[V:5] B,,B, B,, z C/B,/A,/B,/ | 
[V:1] G2F z C/B,/A,/ B,/ | 
[V:2] B,2B, z C/B,/A,/ B,/ | 
[V:3] E,2D, z C/B,/A,/ B,/ | 
[V:4] [g2e2B2G2][fBF] z c/B/A/B/ | 
[V:5] [B,2G,2E,2][B,F,D,] z C/B,/A,/B,/ | 
[V:1] E2D z D D | 
[V:2] B,2B, z A, B, | 
[V:3] G,2F, z ^F, G, | 
[V:4] [e2B2E2][dBF] zd2 & x4AB | 
[V:5] [G,2G,,2][F,F,,] z ^F,G, | 
[V:1] D2C ED C | 
[V:2] G,2G, G,=B, C | 
[V:3] E,2E, C,D, E, | 
[V:4] d2c[ec][d=B]c & G6 | 
[V:5] E,2>C,2D,E, | 
[V:1] D2B,2F2 | 
[V:2] _B,4A,2 | 
[V:3] F,6 | 
[V:4] [d2B2]c2f2 & [B4F4][A2F2] | 
[V:5] F,4-[F,2F,,2] | 
[V:1] B,2z2D3/ D/ | 
[V:2] B,2z2B,3/ B,/ | 
[V:3] B,2z2[F,3/B,,3/] [F,/B,,/] | 
[V:4] B2z2z2 & B2x2x2 | 
[V:5] [B,2B,,2]z2z2 | 
[V:1] D6- | 
[V:2] B,6- | 
[V:3] [F,6B,,6]- | 
[V:4] z2z [fd][bB][fd] | 
[V:5] z2z[B,3-F,3B,,3-] | 
[V:1] !fermata!D6 |]  
[V:2] !fermata!B,6 |]  
[V:3] [F,6B,,6] |]  
[V:4] [b6d6B6] |]  
[V:5] [B,6F,6B,,6] |]  


